svg/300/sharp/grid_on-fill.svg

<svg xmlns="http://www.w3.org/2000/svg" width="48" height="48" viewBox="0 -960 960 960"><path d="M140.001-140.001H336.54v-196.154H140.001v196.154Zm241.922 0h196.154v-196.154H381.923v196.154Zm241.537 0h196.539v-196.154H623.46v196.154ZM140.001-381.539H336.54v-196.922H140.001v196.922Zm241.922 0h196.154v-196.922H381.923v196.922Zm241.537 0h196.539v-196.922H623.46v196.922ZM140.001-623.845H336.54v-196.154H140.001v196.154Zm241.922 0h196.154v-196.154H381.923v196.154Zm241.537 0h196.539v-196.154H623.46v196.154Z"/></svg>

<svg xmlns="http://www.w3.org/2000/svg" width="48" height="48" viewBox="0 -960 960 960"><path d="M140-140h196.54v-196.16H140V-140Zm241.92 0h196.16v-196.16H381.92V-140Zm241.54 0H820v-196.16H623.46V-140ZM140-381.54h196.54v-196.92H140v196.92Zm241.92 0h196.16v-196.92H381.92v196.92Zm241.54 0H820v-196.92H623.46v196.92ZM140-623.84h196.54V-820H140v196.16Zm241.92 0h196.16V-820H381.92v196.16Zm241.54 0H820V-820H623.46v196.16Z"/></svg>
